X: 1
T: Blackberry Quadrille
%O: from Viola Ruth
B: Lee Owens "Advanced Square Dance Figures of the West and Southwest" p.61
R: jig
Z: 2010 John Chambers <jc:trillian.mit.edu>
M: 6/8
L: 1/8
K: G
|: "G"ud2d ed^c | d2B G2B | "D7"A2F D2D | "G"(B2A) G2(B/c/) |\
d2d ed^c | (d2B) G2B | "D7"A2A DEF |1 "G"G3- G3 :|2 "G"G3- G2 ||
|: "G"(B/c/) | d2d e2d | B2d b2b | "D7"c'2d def |\
"G"g2a b2(B/c/) | d2d e2d | B2d b2b | "D7"c'2d def |1 "G"g3- g2 :|2 "G"g3- g3 |]

%%sep 1 1 500

